X: 1997
T: You Have A Long Way To Go
B: australian traditional tunes wiki
M:4/4
L:1/8
R: Schottische
Q: 1/4=100
K:D
V:1 
"D"(3ABA f>df4|(3ABA "A7"g>eg2f>g|a>b a>g f>e d>c|(3ABA (3cde"D"f4|
"D"(3ABA f>df4|(3ABA "A7"g>eg2f>g|a>b a>g f>e d>c|(3ABc (3gfe"D"d4||
"D"a>f b>a g>f e>d|"A7"c>d e>ge4|c2c>ec2B2|c>d e>g"D"f4|
"D"(3ABA f>df4|(3ABA "A7"g>eg2f>g|a>b a>g f>e d>c|(3ABc (3gfe"D"d4||
% abcbook-tune_id 6342d5be1f20d07dad95a120


% abcbook-boost 0
% abcbook-tablature 
% abcbook-transpose 
% abcbook-lastupdated 1665324493285
% abcbook-soundfonts 
% abcbook-repeats 1
% NFF Book 2018

